public/icon.svg

<svg width="44" height="45" viewBox="0 0 44 45" fill="none" xmlns="http://www.w3.org/2000/svg">
<path d="M33.176 40.584L32.344 39.544C33.124 38.764 33.852 38.036 34.528 37.256C35.568 36.008 38.116 32.732 38.116 28C38.116 24.204 36.4 21.812 35.36 20.824C34.684 20.2 33.072 18.848 30.628 18.848C30.42 18.848 29.38 18.848 28.6 19.108C28.028 19.368 27.612 19.68 26.676 20.512C26.52 20.668 26.416 20.824 26.26 20.928C27.352 20.772 28.756 20.512 29.9 20.512C30.836 20.512 32.344 20.668 33.852 22.228C33.904 22.28 34.372 22.8 34.632 23.164C35.152 23.892 35.932 25.66 35.932 28.052C35.932 29.56 35.672 32.472 33.384 35.488C32.604 36.528 31.304 37.724 31.096 37.88C30.368 38.504 28.652 39.752 26.208 40.688C24.908 41.208 24.18 41.416 23.504 41.416C22.412 41.416 20.644 40.948 20.54 40.948C18.408 40.428 16.276 39.856 14.196 39.18C14.144 39.18 10.608 38.036 8.58 38.036C7.02 38.036 5.876 38.608 4.576 39.336C4.888 40.012 5.46 40.168 5.46 41.624C5.46 43.808 3.952 44.432 3.12 44.432C2.496 44.432 0.936 43.964 0.936 42.144C0.936 41.884 0.988 41.312 1.248 40.74C1.716 39.804 2.6 39.024 3.38 38.348C5.304 36.736 6.448 36.06 8.632 34.812C9.516 34.292 10.348 33.824 11.232 33.356C12.22 32.784 12.688 32.524 13.208 32.524C13.78 32.524 16.64 33.356 17.16 33.564C18.044 33.824 18.928 34.188 19.812 34.5C21.06 34.916 22.256 35.332 23.504 35.8C25.012 36.372 26.676 36.892 27.144 36.892C27.456 36.892 27.924 36.736 28.444 36.164C29.172 35.384 30.472 33.044 30.472 29.924C30.472 29.404 30.472 28.208 30.004 26.856C29.64 25.712 28.86 23.736 25.844 23.216C25.688 23.216 24.856 23.06 24.232 23.06C24.024 23.06 23.816 23.112 23.608 23.112C22.152 24.308 20.748 25.504 19.292 26.648C18.356 27.428 17.368 28.156 16.38 29.04C15.756 29.664 15.184 30.236 14.352 30.236C13.468 30.236 9.568 29.456 6.812 27.272C6.448 27.012 6.292 26.856 5.72 26.284C4.732 25.296 4.42 24.776 4.108 24.152C3.64 23.372 3.484 22.904 3.328 22.488C3.172 21.968 2.86 20.876 2.86 19.472C2.912 15.052 5.928 11.568 6.656 10.684C7.02 10.268 7.384 9.852 7.8 9.436C9.828 7.46 12.584 5.536 13.156 5.172C13.884 4.704 14.56 4.288 15.288 3.82L16.068 4.964C15.704 5.224 13.156 7.2 11.596 9.02C8.788 12.348 8.476 15.312 8.476 17.028C8.476 18.64 8.736 19.888 9.568 21.292C9.724 21.604 9.984 21.968 10.192 22.228C11.076 23.268 13.416 25.14 17.056 25.14C17.888 25.14 18.148 25.036 18.512 24.932L20.852 23.008C19.76 23.216 19.396 23.268 18.304 23.268C17.68 23.268 15.652 23.268 13.884 22.124C12.844 21.448 10.972 19.68 10.972 16.352C10.972 14.688 11.44 11.776 14.248 8.864C15.444 7.616 16.484 6.888 17.056 6.472C17.836 5.952 19.344 5.12 21.528 4.236C22.36 3.924 24.596 3.248 25.532 3.248C26.78 3.248 27.716 3.612 29.952 4.392C31.096 4.808 32.136 5.172 33.228 5.588C34.632 6.108 35.932 6.628 37.492 6.628C38.584 6.628 39.104 6.264 39.416 5.9C39.572 5.744 39.884 5.328 39.884 4.704C39.884 4.028 39.572 3.82 39.26 3.248C39.156 3.092 39.052 2.78 39.052 2.312C39.052 1.272 39.78 0.491998 40.82 0.491998C41.6 0.491998 42.796 0.959998 42.796 2.832C42.796 3.56 42.536 4.704 41.6 6.056C40.3 8.084 37.18 10.788 35.36 12.296C34.788 12.764 34.528 12.92 34.216 12.92C33.644 12.868 32.812 12.14 31.772 11.412C31.148 10.944 30.472 10.528 29.744 10.164C26.26 8.084 22.828 7.512 21.372 7.512C20.28 7.512 18.98 7.928 17.732 9.904C17.212 10.684 16.328 12.088 16.328 14.376C16.328 18.952 20.436 20.616 21.684 20.928C22.204 21.032 23.036 21.136 23.088 21.136C24.492 19.992 25.948 18.796 27.352 17.652C28.08 17.08 28.704 16.56 29.38 15.936C29.744 15.676 30.056 15.416 30.368 15.104C30.94 14.532 31.512 14.116 32.24 14.116C32.656 14.116 34.892 14.48 35.256 14.584C36.764 14.948 38.428 15.832 39.676 16.768C40.196 17.184 40.82 17.808 41.288 18.328C42.172 19.316 43.888 21.604 43.888 25.296C43.888 26.7 43.576 29.248 41.652 32.16C40.3 34.24 38.896 35.592 37.18 37.256C35.932 38.452 34.528 39.492 33.176 40.584Z" fill="#FFFCF2"/>
</svg>

<svg version="1.2" xmlns="http://www.w3.org/2000/svg" viewBox="0 0 44 45" width="43" height="44"><style>.a{fill:#252422}</style><path class="a" d="m33.2 40.6l-0.9-1.1c0.8-0.7 1.6-1.5 2.2-2.2 1.1-1.3 3.6-4.6 3.6-9.3 0-3.8-1.7-6.2-2.7-7.2-0.7-0.6-2.3-2-4.8-2-0.2 0-1.2 0-2 0.3-0.6 0.3-1 0.6-1.9 1.4-0.2 0.2-0.3 0.3-0.4 0.4 1.1-0.1 2.5-0.4 3.6-0.4 0.9 0 2.4 0.2 4 1.7 0 0.1 0.5 0.6 0.7 1 0.6 0.7 1.3 2.5 1.3 4.9 0 1.5-0.2 4.4-2.5 7.4-0.8 1-2.1 2.2-2.3 2.4-0.7 0.6-2.4 1.9-4.9 2.8-1.3 0.5-2 0.7-2.7 0.7-1.1 0-2.9-0.5-3-0.5-2.1-0.5-4.2-1-6.3-1.7-0.1 0-3.6-1.2-5.6-1.2-1.6 0-2.7 0.6-4 1.3 0.3 0.7 0.9 0.9 0.9 2.3 0 2.2-1.5 2.8-2.4 2.8-0.6 0-2.2-0.4-2.2-2.3 0-0.2 0.1-0.8 0.3-1.4 0.5-0.9 1.4-1.7 2.2-2.4 1.9-1.6 3-2.2 5.2-3.5 0.9-0.5 1.7-1 2.6-1.4 1-0.6 1.5-0.9 2-0.9 0.6 0 3.4 0.9 4 1.1 0.8 0.2 1.7 0.6 2.6 0.9 1.3 0.4 2.5 0.8 3.7 1.3 1.5 0.6 3.2 1.1 3.6 1.1 0.4 0 0.8-0.2 1.3-0.7 0.8-0.8 2.1-3.2 2.1-6.3 0-0.5 0-1.7-0.5-3-0.4-1.2-1.1-3.2-4.2-3.7-0.1 0-0.9-0.1-1.6-0.1-0.2 0-0.4 0-0.6 0-1.4 1.2-2.9 2.4-4.3 3.5-0.9 0.8-1.9 1.6-2.9 2.4-0.6 0.7-1.2 1.2-2 1.2-0.9 0-4.8-0.7-7.6-2.9-0.4-0.3-0.5-0.4-1.1-1-1-1-1.3-1.5-1.6-2.1-0.5-0.8-0.6-1.3-0.8-1.7-0.1-0.5-0.4-1.6-0.4-3 0-4.4 3-7.9 3.8-8.8q0.5-0.6 1.1-1.3c2-1.9 4.8-3.9 5.4-4.2 0.7-0.5 1.4-0.9 2.1-1.4l0.8 1.2c-0.4 0.2-2.9 2.2-4.5 4-2.8 3.3-3.1 6.3-3.1 8 0 1.6 0.2 2.9 1.1 4.3 0.1 0.3 0.4 0.7 0.6 0.9 0.9 1.1 3.2 2.9 6.9 2.9 0.8 0 1-0.1 1.4-0.2l2.4-1.9c-1.1 0.2-1.5 0.3-2.6 0.3-0.6 0-2.6 0-4.4-1.2-1.1-0.7-2.9-2.4-2.9-5.7 0-1.7 0.4-4.6 3.2-7.5 1.2-1.3 2.3-2 2.9-2.4 0.7-0.5 2.2-1.4 4.4-2.3 0.9-0.3 3.1-1 4-1 1.3 0 2.2 0.4 4.5 1.2 1.1 0.4 2.1 0.8 3.2 1.2 1.4 0.5 2.7 1 4.3 1 1.1 0 1.6-0.3 1.9-0.7 0.2-0.2 0.5-0.6 0.5-1.2 0-0.7-0.3-0.9-0.6-1.5-0.1-0.1-0.2-0.4-0.2-0.9 0-1 0.7-1.8 1.7-1.8 0.8 0 2 0.5 2 2.3 0 0.8-0.3 1.9-1.2 3.3-1.3 2-4.4 4.7-6.2 6.2-0.6 0.5-0.9 0.6-1.2 0.6-0.6 0-1.4-0.8-2.4-1.5q-1-0.7-2.1-1.2c-3.4-2.1-6.9-2.7-8.3-2.7-1.1 0-2.4 0.4-3.7 2.4-0.5 0.8-1.4 2.2-1.4 4.5 0 4.6 4.1 6.2 5.4 6.5 0.5 0.1 1.3 0.2 1.4 0.2 1.4-1.1 2.8-2.3 4.3-3.4 0.7-0.6 1.3-1.1 2-1.8 0.3-0.2 0.7-0.5 1-0.8 0.5-0.6 1.1-1 1.8-1 0.5 0 2.7 0.4 3.1 0.5 1.5 0.3 3.1 1.2 4.4 2.2 0.5 0.4 1.1 1 1.6 1.5 0.9 1 2.6 3.3 2.6 7 0 1.4-0.3 3.9-2.2 6.9-1.4 2-2.8 3.4-4.5 5.1-1.3 1.2-2.7 2.2-4 3.3z"/></svg>
